X: 14922
T: Gatineau
R: reel
M: 4/4
K: Fmajor
A3B|:cagf egfd|(3cdc AF CFAc|{Bc}BAGA BcdB|(3cdc AF C2Ac|
cagf egfd|(3cdc AF CFAc|{Bc}BAGA Bcde|1 fcag f2AB:|2 fcag f2||
Ac|:acgc fcAc|fcec d2^cd|bgaf gfef|gfed c2Ac|acgc fcAc|
dfbf d2^cd|bgaf gfed|1 cbge f2AB:|2 cbge f2AB||

